assets/svg/networks/wallet_cosmos.svg

<svg width="36" height="36" viewBox="0 0 36 36" fill="none" xmlns="http://www.w3.org/2000/svg">
<rect width="36" height="36" rx="10" fill="#2F3146"/>
<path fill-rule="evenodd" clip-rule="evenodd" d="M17.9227 8.68359C22.9206 8.68359 26.9724 12.7353 26.9724 17.7332C26.9724 22.7312 22.9206 26.7829 17.9227 26.7829C12.9247 26.7829 8.87305 22.7312 8.87305 17.7332C8.87305 12.7353 12.9247 8.68359 17.9227 8.68359Z" fill="#1C1E34"/>
<path fill-rule="evenodd" clip-rule="evenodd" d="M18.2 4.73077C18.0754 4.61609 18.0111 4.61392 18.0003 4.61392C17.9895 4.61392 17.9251 4.61609 17.8006 4.73077C17.6726 4.84847 17.5198 5.05157 17.355 5.36494C17.0262 5.99044 16.7115 6.93586 16.4402 8.15579C16.1352 9.52764 15.8941 11.2044 15.742 13.0815C16.4765 13.4368 17.2318 13.8232 18.0001 14.238C18.7685 13.8231 19.5239 13.4367 20.2585 13.0813C20.1064 11.2043 19.8653 9.5276 19.5603 8.15579C19.2891 6.93586 18.9743 5.99044 18.6455 5.36494C18.4808 5.05157 18.3279 4.84847 18.2 4.73077ZM17.3573 14.5901C16.7931 14.2903 16.2372 14.0067 15.6929 13.7403C15.6517 14.3446 15.6196 14.9675 15.5972 15.6057C15.885 15.4333 16.1771 15.2615 16.4731 15.0908C16.7691 14.92 17.064 14.7531 17.3573 14.5901ZM15.1495 12.7993C15.5902 7.65222 16.7005 4 18.0003 4C19.3001 4 20.4101 7.65214 20.851 12.7992C25.5315 10.6072 29.2513 9.74202 29.9013 10.867C30.5512 11.992 27.9415 14.7788 23.7016 17.7338C27.9415 20.6888 30.5512 23.4756 29.9013 24.6006C29.2513 25.7256 25.5315 24.8605 20.851 22.6684C20.4101 27.8155 19.3001 31.4676 18.0003 31.4676C16.7005 31.4676 15.5902 27.8154 15.1495 22.6683C10.4688 24.8603 6.74879 25.7256 6.09886 24.6006C5.44896 23.4756 8.05868 20.6888 12.2985 17.7338C8.05868 14.7788 5.44896 11.992 6.09886 10.867C6.74879 9.74199 10.4688 10.6073 15.1495 12.7993ZM12.8395 17.3619C11.2888 16.2917 9.95615 15.2446 8.9198 14.2946C7.99825 13.4498 7.33632 12.7047 6.9587 12.1074C6.7695 11.8081 6.66998 11.5742 6.63194 11.4047C6.59491 11.2397 6.62519 11.1832 6.63044 11.1741C6.63574 11.1649 6.6697 11.1103 6.83145 11.0598C6.99749 11.0079 7.25004 10.9771 7.60403 10.9912C8.31058 11.0194 9.28732 11.2197 10.4801 11.5949C11.8215 12.0169 13.3951 12.6467 15.0977 13.4536C15.0385 14.2668 14.9956 15.1135 14.971 15.9858C14.2272 16.4434 13.5147 16.9039 12.8395 17.3619ZM12.8395 18.1058C11.2888 19.1759 9.95615 20.223 8.9198 21.173C7.99825 22.0178 7.33632 22.7629 6.9587 23.3602C6.7695 23.6595 6.66998 23.8934 6.63194 24.0629C6.59491 24.2279 6.62519 24.2845 6.63044 24.2935C6.63572 24.3027 6.66965 24.3573 6.83145 24.4078C6.99749 24.4597 7.25004 24.4905 7.60403 24.4763C8.31058 24.4482 9.28732 24.2479 10.4801 23.8727C11.8215 23.4507 13.3951 22.821 15.0977 22.0141C15.0385 21.2008 14.9956 20.3541 14.971 19.4818C14.2272 19.0242 13.5147 18.5638 12.8395 18.1058ZM14.9547 18.7495C14.4127 18.411 13.8889 18.0717 13.3858 17.7338C13.8889 17.3959 14.4127 17.0566 14.9547 16.7181C14.9493 17.0536 14.9465 17.3922 14.9465 17.7338C14.9465 18.0754 14.9493 18.4142 14.9547 18.7495ZM15.5762 19.1323C15.5657 18.6728 15.5604 18.2063 15.5604 17.7338C15.5604 17.2614 15.5657 16.7948 15.5762 16.3353C15.9691 16.0966 16.3707 15.8587 16.78 15.6225C17.1895 15.3862 17.5965 15.1575 18.0001 14.9368C18.4036 15.1575 18.8106 15.3862 19.2202 15.6225C19.6297 15.8587 20.0314 16.0967 20.4243 16.3356C20.4348 16.7949 20.4401 17.2614 20.4401 17.7338C20.4401 18.2062 20.4348 18.6727 20.4243 19.132C20.0314 19.3709 19.6297 19.6089 19.2202 19.8451C18.8106 20.0814 18.4036 20.3101 18.0001 20.5309C17.5965 20.3101 17.1895 20.0814 16.78 19.8451C16.3707 19.6089 15.9691 19.371 15.5762 19.1323ZM15.5972 19.8619C15.6196 20.5001 15.6517 21.123 15.6929 21.7273C16.2372 21.4609 16.7931 21.1772 17.3573 20.8774C17.064 20.7145 16.7691 20.5477 16.4731 20.3769C16.1771 20.2061 15.885 20.0343 15.5972 19.8619ZM18.0001 21.2296C17.2318 21.6444 16.4765 22.0308 15.742 22.3862C15.8941 24.2632 16.1352 25.94 16.4402 27.3118C16.7115 28.5318 17.0262 29.4772 17.355 30.1027C17.5198 30.416 17.6726 30.6192 17.8006 30.7369C17.9251 30.8515 17.9895 30.8537 18.0003 30.8537C18.0111 30.8537 18.0754 30.8515 18.2 30.7369C18.3279 30.6192 18.4808 30.416 18.6455 30.1027C18.9743 29.4772 19.2891 28.5318 19.5603 27.3118C19.8653 25.94 20.1064 24.2632 20.2585 22.3863C19.5239 22.0309 18.7685 21.6445 18.0001 21.2296ZM20.9028 22.0142C22.6053 22.821 24.1788 23.4508 25.52 23.8727C26.7129 24.2479 27.6895 24.4482 28.3961 24.4763C28.7501 24.4905 29.0026 24.4597 29.1687 24.4078C29.3305 24.3573 29.3645 24.3027 29.3697 24.2935C29.3749 24.2845 29.4052 24.228 29.3681 24.0629C29.3302 23.8934 29.2306 23.6595 29.0415 23.3602C28.6638 22.7629 28.0019 22.0178 27.0804 21.173C26.044 20.223 24.7113 19.1759 23.1606 18.1058C22.4855 18.5636 21.7731 19.0241 21.0295 19.4816C21.0049 20.354 20.962 21.2009 20.9028 22.0142ZM23.1606 17.3619C24.7113 16.2917 26.044 15.2446 27.0804 14.2946C28.0019 13.4498 28.6638 12.7047 29.0415 12.1074C29.2306 11.8081 29.3302 11.5742 29.3681 11.4047C29.4052 11.2396 29.3749 11.1832 29.3697 11.1741C29.3645 11.165 29.3305 11.1104 29.1687 11.0598C29.0026 11.0079 28.7501 10.9771 28.3961 10.9912C27.6895 11.0194 26.7129 11.2197 25.52 11.5949C24.1788 12.0168 22.6053 12.6466 20.9028 13.4534C20.962 14.2667 21.0049 15.1136 21.0295 15.986C21.7731 16.4435 22.4855 16.904 23.1606 17.3619ZM21.0459 16.7184C21.5877 17.0567 22.1113 17.396 22.6143 17.7338C22.1113 18.0716 21.5877 18.4109 21.0459 18.7492C21.0512 18.4139 21.054 18.0754 21.054 17.7338C21.054 17.3922 21.0512 17.0537 21.0459 16.7184ZM20.4033 15.606C20.3811 14.9675 20.3489 14.3445 20.3076 13.7401C19.7632 14.0066 19.2072 14.2903 18.6429 14.5901C18.9362 14.7531 19.231 14.92 19.527 15.0908C19.8231 15.2616 20.1153 15.4335 20.4033 15.606ZM20.3076 21.7276C19.7632 21.461 19.2072 21.1774 18.6429 20.8774C18.9362 20.7145 19.231 20.5477 19.527 20.3769C19.8231 20.206 20.1153 20.0341 20.4033 19.8616C20.3811 20.5001 20.3489 21.1231 20.3076 21.7276Z" fill="#70738E"/>
<path fill-rule="evenodd" clip-rule="evenodd" d="M9.22162 13.8887C9.755 13.8887 10.1874 14.3213 10.1874 14.8549C10.1874 15.3886 9.755 15.8212 9.22162 15.8212C8.68824 15.8212 8.25586 15.3886 8.25586 14.8549C8.25586 14.3213 8.68824 13.8887 9.22162 13.8887Z" fill="#B7B9C7"/>
<path fill-rule="evenodd" clip-rule="evenodd" d="M24.5698 10.5801C25.1035 10.5801 25.5361 11.0127 25.5361 11.5463C25.5361 12.08 25.1035 12.5126 24.5698 12.5126C24.0361 12.5126 23.6035 12.08 23.6035 11.5463C23.6035 11.0127 24.0361 10.5801 24.5698 10.5801Z" fill="#B7B9C7"/>
<path fill-rule="evenodd" clip-rule="evenodd" d="M16.0522 25.7422C16.5858 25.7422 17.0184 26.1745 17.0184 26.7079C17.0184 27.2413 16.5858 27.6737 16.0522 27.6737C15.5185 27.6737 15.0859 27.2413 15.0859 26.7079C15.0859 26.1745 15.5185 25.7422 16.0522 25.7422Z" fill="#B7B9C7"/>
<path fill-rule="evenodd" clip-rule="evenodd" d="M17.9463 16.0898C18.8499 16.0898 19.5823 16.8222 19.5823 17.7256C19.5823 18.6292 18.8499 19.3616 17.9463 19.3616C17.0429 19.3616 16.3105 18.6292 16.3105 17.7256C16.3105 16.8222 17.0429 16.0898 17.9463 16.0898Z" fill="#B7B9C7"/>
</svg>

<svg xmlns="http://www.w3.org/2000/svg" width="36" height="36" fill="none"><rect width="36" height="36" fill="#2F3146" rx="10"/><path fill="#1C1E34" fill-rule="evenodd" d="M17.923 8.684a9.05 9.05 0 1 1 0 18.1 9.05 9.05 0 0 1 0-18.1" clip-rule="evenodd"/><path fill="#70738E" fill-rule="evenodd" d="M18.2 4.73c-.125-.114-.189-.116-.2-.116-.01 0-.075.002-.2.117-.127.117-.28.32-.445.634-.329.625-.643 1.57-.915 2.79-.305 1.373-.546 3.05-.698 4.927q1.104.533 2.258 1.156a57 57 0 0 1 2.259-1.157c-.153-1.877-.394-3.553-.699-4.925-.27-1.22-.586-2.166-.915-2.791-.164-.313-.317-.517-.445-.634m-.843 9.86q-.847-.45-1.664-.85a57 57 0 0 0-.096 1.866 61 61 0 0 1 1.76-1.016M15.15 12.8C15.59 7.651 16.7 4 18 4s2.41 3.652 2.851 8.8c4.68-2.193 8.4-3.058 9.05-1.933s-1.96 3.912-6.2 6.867c4.24 2.955 6.85 5.742 6.2 6.867s-4.37.26-9.05-1.933c-.44 5.148-1.55 8.8-2.85 8.8s-2.41-3.653-2.852-8.8c-4.68 2.192-8.4 3.058-9.05 1.933s1.96-3.912 6.2-6.867c-4.24-2.955-6.85-5.742-6.2-6.867s4.37-.26 9.05 1.932m-2.31 4.562c-1.551-1.07-2.884-2.117-3.92-3.067-.922-.845-1.584-1.59-1.961-2.188-.19-.299-.289-.533-.327-.702-.037-.165-.007-.222-.002-.23.006-.01.04-.065.201-.115.166-.052.419-.083.773-.069.707.028 1.683.229 2.876.604 1.342.422 2.915 1.052 4.618 1.859-.06.813-.102 1.66-.127 2.532q-1.117.687-2.132 1.376m0 .744c-1.551 1.07-2.884 2.117-3.92 3.067-.922.845-1.584 1.59-1.961 2.187-.19.3-.289.533-.327.703-.037.165-.007.222-.002.23.006.01.04.064.201.115.166.052.419.082.773.068.707-.028 1.683-.228 2.876-.603 1.342-.422 2.915-1.052 4.618-1.859-.06-.813-.102-1.66-.127-2.532a57 57 0 0 1-2.132-1.376m2.115.643a56 56 0 0 1-1.57-1.015 56 56 0 0 1 1.57-1.016 63 63 0 0 0 0 2.032m.621.383a61 61 0 0 1 0-2.797A62 62 0 0 1 18 14.937a62 62 0 0 1 2.424 1.399 61 61 0 0 1 0 2.796A61 61 0 0 1 18 20.531a62 62 0 0 1-2.424-1.399m.021.73q.035.958.096 1.865.817-.4 1.664-.85a62 62 0 0 1-1.76-1.015M18 21.23q-1.154.622-2.258 1.156c.152 1.877.393 3.554.698 4.926.271 1.22.586 2.165.915 2.79.165.314.318.517.446.635.124.115.189.117.2.117.01 0 .074-.002.199-.117.128-.118.28-.321.445-.634.33-.626.644-1.571.915-2.791.305-1.372.546-3.049.699-4.926A57 57 0 0 1 18 21.23m2.903.784c1.702.807 3.276 1.437 4.617 1.859 1.193.375 2.17.575 2.876.603.354.015.607-.016.773-.068.162-.05.195-.105.2-.114s.036-.066 0-.231c-.039-.17-.138-.403-.328-.703-.377-.597-1.04-1.342-1.96-2.187-1.037-.95-2.37-1.997-3.92-3.067a57 57 0 0 1-2.132 1.376c-.024.872-.067 1.719-.126 2.532m2.258-4.652c1.55-1.07 2.883-2.117 3.92-3.067.92-.845 1.583-1.59 1.96-2.188.19-.299.29-.533.327-.702.037-.165.007-.222.002-.23-.006-.01-.04-.065-.201-.115-.166-.052-.419-.083-.773-.069-.707.028-1.683.229-2.876.604-1.341.422-2.915 1.052-4.617 1.858q.089 1.222.127 2.533 1.116.687 2.13 1.376m-2.115-.644a56 56 0 0 1 1.568 1.016 56 56 0 0 1-1.568 1.015 64 64 0 0 0 0-2.03m-.643-1.112a56 56 0 0 0-.095-1.866q-.818.4-1.665.85a63 63 0 0 1 1.76 1.016m-.095 6.122q-.818-.4-1.665-.85a62 62 0 0 0 1.76-1.016 56 56 0 0 1-.095 1.866" clip-rule="evenodd"/><path fill="#B7B9C7" fill-rule="evenodd" d="M9.222 13.889a.966.966 0 1 1 0 1.932.966.966 0 0 1 0-1.932M24.57 10.58a.966.966 0 1 1 0 1.933.966.966 0 0 1 0-1.933M16.052 25.742a.966.966 0 1 1 0 1.932.966.966 0 0 1 0-1.932M17.946 16.09a1.636 1.636 0 1 1 0 3.272 1.636 1.636 0 0 1 0-3.272" clip-rule="evenodd"/></svg>
